icons/editor-crop-2-filled.svg

<svg width="24" height="24" viewBox="0 0 24 24" fill="none" xmlns="http://www.w3.org/2000/svg">
<g id="crop-02">
<path id="Icon" d="M2.40039 6.60861H6.87162M6.87162 6.60861V2.40039M6.87162 6.60861V15.5511C6.87162 16.1321 7.34264 16.6031 7.92368 16.6031H17.6552M6.87162 6.60861L16.6031 6.54726C17.1842 6.54726 17.6552 7.01828 17.6552 7.59932V16.6031M17.6552 16.6031H21.6004M17.6552 16.6031V21.8634" stroke="black" stroke-width="2" stroke-linecap="round" stroke-linejoin="round"/>
</g>
</svg>

<svg xmlns="http://www.w3.org/2000/svg" width="24" height="24" fill="none" viewBox="0 0 24 24"><path stroke="currentColor" stroke-linecap="round" stroke-linejoin="round" stroke-width="2" d="M2.4 6.609h4.472m0 0V2.4m0 4.209v8.942c0 .581.47 1.052 1.052 1.052h9.731M6.872 6.61l9.731-.062c.581 0 1.052.471 1.052 1.052v9.004m0 0H21.6m-3.945 0v5.26"/></svg>
